X: 100314
M: C|
L: 1/8
K: G
(ud>c) !segno!|\
(.d'>.d') |\
d'2 (d'>.d') d'd'/d'/ d'd' | b2(g/a/b/c'/) d'4 |\
d2(.d>.d) dd/d/ dd | B2(G/A/B/c/) d4 |
(.d'>.d')d'2 (.d>.d)d2 | (.d'>.d')d'2 (.d>.d)d2 |\
d'd'/d'/ d'd'/d'/ d'd'/d'/ (.d'>.d') | d'2d'>d' d'=c'ba "^D.C."!segno!||
uD2 |\
d2 (.g>.d) B2 (.d>.B) | G2 (.B>.G) D4 |
b2 (b/a/b/c'/) d'd'd'd' | b2 (g/a/b/c'/) d'd'd'd' |\
bd'bg bd'bg | d'd'/d'/ d'd'/d'/ d'2 ||
(u.d>.d) |\
dd/d/ dd dd/d/ dd | c'4 (c'af2) | dd/d/ dd dd/d/ dd | d'4 (d'bg2) |
dd/d/ dd dd/d/ dd | c'z bz d'z bz | c'2b2 a2g2 | f2e2 d2"^D.C."c2 |]


